static/assets/images/icons/visible.svg

<svg width="256" height="256" viewBox="0 0 256 256" fill="none" xmlns="http://www.w3.org/2000/svg">
<path d="M150.939 123.482C150.939 136.538 140.369 147.121 127.33 147.121C114.291 147.121 103.721 136.538 103.721 123.482C103.721 110.427 114.291 99.843 127.33 99.843C140.369 99.843 150.939 110.427 150.939 123.482Z" fill="#D9D9D9"/>
<path fill-rule="evenodd" clip-rule="evenodd" d="M128.092 64.0029C92.4095 64.2478 55.1873 79.2614 19.7163 112.78C10.787 121.218 10.7112 135.282 19.7889 143.56C49.4933 170.647 90.5527 192 130.123 192C167.322 192 204.323 175.084 236.462 144.161C245.429 135.532 245.09 121.259 235.951 112.814C204.348 83.6087 168.683 63.7243 128.092 64.0029ZM83.3127 90.8432C93.4296 86.3167 110.232 81.5274 128.092 81.5387C144.263 81.549 161.452 86.3243 168.784 89.2154C175.316 91.7913 175.349 91.8126 176.843 94.4241C178.969 98.1388 181.215 104.605 182.191 109.821C183.226 115.349 183.249 125.161 182.241 130.345C177.954 152.392 161.038 169.621 139.331 174.05C133.17 175.308 123.905 175.422 118.064 174.313C99.5142 170.789 83.4214 157.549 76.7692 140.337C71.2264 125.993 72.0479 108.82 78.9336 95.1003C80.2623 92.4537 80.7299 91.9987 83.3127 90.8432ZM150.939 123.482C150.939 136.538 140.369 147.121 127.33 147.121C114.291 147.121 103.721 136.538 103.721 123.482C103.721 110.427 114.291 99.843 127.33 99.843C140.369 99.843 150.939 110.427 150.939 123.482ZM199.033 105.29C201.766 120.465 199.033 143.563 191.687 155.554C202.535 149.207 213.219 140.696 220.333 134.275C223.944 131.017 223.906 125.493 220.321 122.207C213.091 115.58 204.558 108.744 199.033 105.29ZM34.701 133.597C31.5592 130.5 31.3381 125.513 34.4339 122.37C40.9592 115.745 48.8011 110.471 56.869 105.632C51.6796 132.887 59.8031 148.646 64.4843 155.567C53.7575 150.605 42.7739 141.555 34.701 133.597Z" fill="#040404"/>
</svg>

<svg xmlns="http://www.w3.org/2000/svg" fill="none" viewBox="0 0 256 256"><path fill="#D9D9D9" d="M150.939 123.482c0 13.056-10.57 23.639-23.609 23.639s-23.609-10.583-23.609-23.639 10.57-23.639 23.609-23.639 23.609 10.584 23.609 23.639"/><path fill="#040404" fill-rule="evenodd" d="M128.092 64.003c-35.683.245-72.905 15.258-108.376 48.777-8.929 8.438-9.005 22.502.073 30.78C49.493 170.647 90.553 192 130.123 192c37.199 0 74.2-16.916 106.339-47.839 8.967-8.629 8.628-22.902-.511-31.347-31.603-29.205-67.268-49.09-107.859-48.811m-44.78 26.84c10.118-4.526 26.92-9.316 44.78-9.304 16.171.01 33.36 4.785 40.692 7.676 6.532 2.576 6.565 2.598 8.059 5.21 2.126 3.714 4.372 10.18 5.348 15.396 1.035 5.528 1.058 15.34.05 20.524-4.287 22.047-21.203 39.276-42.91 43.705-6.161 1.258-15.426 1.372-21.267.263-18.55-3.524-34.643-16.764-41.295-33.976-5.543-14.344-4.721-31.517 2.165-45.237 1.328-2.646 1.796-3.101 4.379-4.257m67.627 32.639c0 13.056-10.57 23.639-23.609 23.639s-23.609-10.583-23.609-23.639 10.57-23.639 23.609-23.639 23.609 10.584 23.609 23.639m48.094-18.192c2.733 15.175 0 38.273-7.346 50.264 10.848-6.347 21.532-14.858 28.646-21.279 3.611-3.258 3.573-8.782-.012-12.068-7.23-6.627-15.763-13.463-21.288-16.917M34.701 133.597c-3.142-3.097-3.363-8.084-.267-11.227 6.525-6.625 14.367-11.899 22.435-16.738-5.19 27.255 2.934 43.014 7.615 49.935-10.726-4.962-21.71-14.012-29.783-21.97" clip-rule="evenodd"/></svg>
